airbyte/airbyte-config/init/src/main/resources/icons/redshift.svg

<svg enable-background="new 0 0 1615 1783.7" viewBox="0 0 1615 1783.7" xmlns="http://www.w3.org/2000/svg"><path d="m807.5 1363.8 678.3 161.5v-1270.5l-678.3 161.5z" fill="#205b97"/><path d="m1485.8 254.8 129.2 64.6v1141.3l-129.2 64.6zm-678.3 1109-678.3 161.5v-1270.5l678.3 161.5z" fill="#5193ce"/><path d="m129.2 254.8-129.2 64.6v1141.3l129.2 64.6z" fill="#205b97"/><path d="m979.8 1783.7 258.4-129.2v-1525.3l-258.4-129.2-79 847z" fill="#5193ce"/><path d="m635.2 1783.7-258.4-129.2v-1525.3l258.4-129.2 79 847z" fill="#205b97"/><path d="m635.2 0h348.1v1780.1h-348.1z" fill="#2e73b7"/></svg>

<svg xmlns="http://www.w3.org/2000/svg" viewBox="0 0 1615 1783.7"><path fill="#205b97" d="m807.5 1363.8 678.3 161.5V254.8L807.5 416.3z"/><path fill="#5193ce" d="m1485.8 254.8 129.2 64.6v1141.3l-129.2 64.6zm-678.3 1109-678.3 161.5V254.8l678.3 161.5z"/><path fill="#205b97" d="M129.2 254.8 0 319.4v1141.3l129.2 64.6z"/><path fill="#5193ce" d="m979.8 1783.7 258.4-129.2V129.2L979.8 0l-79 847z"/><path fill="#205b97" d="m635.2 1783.7-258.4-129.2V129.2L635.2 0l79 847z"/><path fill="#2e73b7" d="M635.2 0h348.1v1780.1H635.2z"/></svg>
